X:1
T:Goshen, CMD
T:From Psalms and Hymns, by William Gawler, 1789
T:Goshen, CMD
T:Public Domain
C:From Psalms and Hymns, by William Gawler, 1789
Z:Public Domain
%%score ( 1 2 ) ( 3 4 )
L:1/8
M:4/4
K:F
V:1 treble 
V:2 treble 
V:3 bass 
V:4 bass 
V:1
 [Fc]2 | ([Ac]3 [GB]) [FA]2 [Ac]2 | ([EB]3 [FA]) [EG]2 (DC) | ([CA]2 [CF]2) D2 [DG]2 | %4
 (F4 E2) [Ec]2 | [Fc]3 [EB] [FA]2 [Fc]2 | D2 E[FA] [EG]2 (DE) | [FA]2 ([FB][DG]) [CF]2 [CE]2 | %8
 [CF]6 C2 | [EG]3 [CF] [CE]2 C2 | [CB]3 [CA] [CG]2 [CG]2 | [CA]2 [DA]2 [D=B]2 [FB]2 | [Ec]6 [Ec]2 | %13
 [Fc]3 [FB] [FA]2 [Gc]2 | [FB]3 [FA] [EG]2 [GB]2 | [FA]2 (BG) [CF]2 [B,E]2 | [A,F]6 |] %17
V:2
 x2 | x8 | x6 B2 | x4 D2 x2 | C6 x2 | x8 | B3 x B2 x2 | x8 | x6 C2 | x6 C2 | x8 | x8 | x8 | x8 | %14
 x8 | x2 D2 x4 | x6 |] %17
V:3
 [A,C]2 | ([F,C]3 [F,C]) [F,C]2 [F,C]2 | ([E,G,]3 [F,A,]) [C,C]2 ([D,F,][E,G,]) | %3
 ([F,C]2 [F,A,]2) [B,,B,]2 [G,,B,]2 | (A,4 G,2) (C,B,,) | [F,A,]3 [G,B,] [A,C]2 [F,A,]2 | %6
 [G,B,]3 [F,C] [C,C]2 [E,C]2 | [F,C]2 (DB,) [C,A,]2 [C,G,]2 | [F,A,]6 [C,C]2 | %9
 [C,C]3 [C,A,] [C,G,]2 [C,E,]2 | [E,G,]3 F, [C,E,]2 [E,G,]2 | F,2 [D,F,]2 G,2 [G,,G,]2 | %12
 [C,G,]6 [C,B,]2 | [F,A,]3 [F,D] [F,C]2 [E,C]2 | [D,D]3 [F,C] [C,C]2 [E,C]2 | %15
 [F,C]2 (G,B,) [C,A,]2 [C,G,]2 | [F,,F,]6 |] %17
V:4
 x2 | x8 | x8 | x8 | C,6 G,2 | x8 | x8 | x2 B,,2 x4 | x8 | x8 | x8 | x8 | x8 | x8 | x8 | %15
 x2 B,,2 x4 | x6 |] %17

